assets/icons/code.svg

<svg id="Layer_1" enable-background="new 0 0 512 512" height="512" viewBox="0 0 512 512" width="512" xmlns="http://www.w3.org/2000/svg"><g><g><path d="m474.5 71.5h-26.261c-4.143 0-7.5 3.357-7.5 7.5s3.357 7.5 7.5 7.5h26.261c12.406 0 22.5 10.094 22.5 22.5v34.5h-482v-34.5c0-12.406 10.093-22.5 22.5-22.5h377.809c4.143 0 7.5-3.357 7.5-7.5s-3.357-7.5-7.5-7.5h-377.809c-20.678 0-37.5 16.822-37.5 37.5v82.681c0 4.143 3.358 7.5 7.5 7.5s7.5-3.357 7.5-7.5v-33.181h482v193.366c0 4.143 3.357 7.5 7.5 7.5s7.5-3.357 7.5-7.5v-242.866c0-20.678-16.822-37.5-37.5-37.5z"/><path d="m504.5 375.994c-4.143 0-7.5 3.357-7.5 7.5v19.506c0 12.406-10.094 22.5-22.5 22.5h-437c-12.407 0-22.5-10.094-22.5-22.5v-179.133c0-4.143-3.358-7.5-7.5-7.5s-7.5 3.357-7.5 7.5v179.133c0 20.678 16.822 37.5 37.5 37.5h437c20.678 0 37.5-16.822 37.5-37.5v-19.506c0-4.142-3.357-7.5-7.5-7.5z"/><path d="m108.482 234.457c-2.929-2.928-7.678-2.928-10.606 0l-45.07 45.07c-1.407 1.407-2.197 3.314-2.197 5.304s.79 3.896 2.197 5.304l44.474 44.474c1.464 1.464 3.384 2.196 5.303 2.196s3.839-.732 5.303-2.196c2.929-2.93 2.929-7.678 0-10.607l-39.171-39.17 39.767-39.767c2.93-2.93 2.93-7.678 0-10.608z"/><path d="m209.344 334.608c1.464 1.464 3.384 2.196 5.303 2.196s3.839-.732 5.303-2.196l44.475-44.474c1.406-1.407 2.196-3.314 2.196-5.304s-.79-3.896-2.196-5.304l-45.071-45.07c-2.929-2.928-7.678-2.928-10.606 0-2.929 2.93-2.929 7.678 0 10.607l39.768 39.767-39.171 39.17c-2.93 2.931-2.93 7.679-.001 10.608z"/><path d="m131.99 362.234c3.025 0 5.876-1.844 7.013-4.841l53.294-140.398c1.47-3.873-.478-8.204-4.35-9.674-3.872-1.471-8.204.478-9.673 4.35l-53.294 140.4c-1.47 3.872.478 8.203 4.35 9.673.876.333 1.775.49 2.66.49z"/><path d="m33.006 115.371c0 12.406 10.093 22.5 22.5 22.5s22.5-10.094 22.5-22.5-10.093-22.5-22.5-22.5-22.5 10.094-22.5 22.5zm30 0c0 4.136-3.364 7.5-7.5 7.5s-7.5-3.364-7.5-7.5 3.364-7.5 7.5-7.5 7.5 3.364 7.5 7.5z"/><path d="m91.166 115.371c0 12.406 10.093 22.5 22.5 22.5s22.5-10.094 22.5-22.5-10.093-22.5-22.5-22.5-22.5 10.094-22.5 22.5zm30 0c0 4.136-3.364 7.5-7.5 7.5s-7.5-3.364-7.5-7.5 3.364-7.5 7.5-7.5 7.5 3.364 7.5 7.5z"/><path d="m149.325 115.371c0 12.406 10.093 22.5 22.5 22.5s22.5-10.094 22.5-22.5-10.093-22.5-22.5-22.5-22.5 10.094-22.5 22.5zm30 0c0 4.136-3.364 7.5-7.5 7.5s-7.5-3.364-7.5-7.5 3.364-7.5 7.5-7.5 7.5 3.364 7.5 7.5z"/><path d="m335.5 242.368h47c12.406 0 22.5-10.094 22.5-22.5s-10.094-22.5-22.5-22.5h-47c-12.406 0-22.5 10.094-22.5 22.5s10.094 22.5 22.5 22.5zm0-30h47c4.136 0 7.5 3.364 7.5 7.5s-3.364 7.5-7.5 7.5h-47c-4.136 0-7.5-3.364-7.5-7.5s3.364-7.5 7.5-7.5z"/><path d="m335.5 302.368h124c12.406 0 22.5-10.094 22.5-22.5s-10.094-22.5-22.5-22.5h-124c-12.406 0-22.5 10.094-22.5 22.5s10.094 22.5 22.5 22.5zm0-30h124c4.136 0 7.5 3.364 7.5 7.5s-3.364 7.5-7.5 7.5h-124c-4.136 0-7.5-3.364-7.5-7.5s3.364-7.5 7.5-7.5z"/><path d="m335.5 362.368h87.165c12.406 0 22.5-10.094 22.5-22.5s-10.094-22.5-22.5-22.5h-87.165c-12.406 0-22.5 10.094-22.5 22.5s10.094 22.5 22.5 22.5zm0-30h87.165c4.136 0 7.5 3.364 7.5 7.5s-3.364 7.5-7.5 7.5h-87.165c-4.136 0-7.5-3.364-7.5-7.5s3.364-7.5 7.5-7.5z"/></g></g></svg>

<svg id="Layer_1" data-name="Layer 1" xmlns="http://www.w3.org/2000/svg" viewBox="0 0 512 369"><defs><style>.cls-1{fill:#f2f2f2;}</style></defs><title>code</title><path class="cls-1" d="M474.5,71.5H448.24a7.5,7.5,0,0,0,0,15H474.5A22.52,22.52,0,0,1,497,109v34.5H15V109A22.52,22.52,0,0,1,37.5,86.5H415.31a7.5,7.5,0,0,0,0-15H37.5A37.54,37.54,0,0,0,0,109v82.68a7.5,7.5,0,0,0,15,0V158.5H497V351.87a7.5,7.5,0,0,0,15,0V109A37.54,37.54,0,0,0,474.5,71.5Z" transform="translate(0 -71.5)"/><path class="cls-1" d="M504.5,376a7.5,7.5,0,0,0-7.5,7.5V403a22.52,22.52,0,0,1-22.5,22.5H37.5A22.52,22.52,0,0,1,15,403V223.87a7.5,7.5,0,0,0-15,0V403a37.54,37.54,0,0,0,37.5,37.5h437A37.54,37.54,0,0,0,512,403V383.49A7.5,7.5,0,0,0,504.5,376Z" transform="translate(0 -71.5)"/><path class="cls-1" d="M108.48,234.46a7.49,7.49,0,0,0-10.6,0L52.81,279.53a7.48,7.48,0,0,0,0,10.6l44.47,44.48A7.5,7.5,0,1,0,107.89,324L68.71,284.83l39.77-39.77a7.49,7.49,0,0,0,0-10.6Z" transform="translate(0 -71.5)"/><path class="cls-1" d="M209.34,334.61a7.52,7.52,0,0,0,10.61,0l44.47-44.48a7.48,7.48,0,0,0,0-10.6l-45.07-45.07a7.5,7.5,0,0,0-10.6,10.6l39.77,39.77L209.34,324a7.5,7.5,0,0,0,0,10.61Z" transform="translate(0 -71.5)"/><path class="cls-1" d="M132,362.23a7.49,7.49,0,0,0,7-4.84L192.3,217a7.5,7.5,0,0,0-14-5.33L125,352.07a7.5,7.5,0,0,0,4.35,9.67,7.32,7.32,0,0,0,2.66.49Z" transform="translate(0 -71.5)"/><path class="cls-1" d="M33,115.37a22.5,22.5,0,1,0,22.5-22.5A22.52,22.52,0,0,0,33,115.37Zm30,0a7.5,7.5,0,1,1-7.5-7.5A7.51,7.51,0,0,1,63,115.37Z" transform="translate(0 -71.5)"/><path class="cls-1" d="M91.17,115.37a22.5,22.5,0,1,0,22.5-22.5A22.52,22.52,0,0,0,91.17,115.37Zm30,0a7.5,7.5,0,1,1-7.5-7.5A7.51,7.51,0,0,1,121.17,115.37Z" transform="translate(0 -71.5)"/><path class="cls-1" d="M149.32,115.37a22.5,22.5,0,1,0,22.5-22.5A22.53,22.53,0,0,0,149.32,115.37Zm30,0a7.5,7.5,0,1,1-7.5-7.5A7.5,7.5,0,0,1,179.32,115.37Z" transform="translate(0 -71.5)"/><path class="cls-1" d="M335.5,242.37h47a22.5,22.5,0,0,0,0-45h-47a22.5,22.5,0,0,0,0,45Zm0-30h47a7.5,7.5,0,0,1,0,15h-47a7.5,7.5,0,0,1,0-15Z" transform="translate(0 -71.5)"/><path class="cls-1" d="M335.5,302.37h124a22.5,22.5,0,0,0,0-45h-124a22.5,22.5,0,0,0,0,45Zm0-30h124a7.5,7.5,0,0,1,0,15h-124a7.5,7.5,0,0,1,0-15Z" transform="translate(0 -71.5)"/><path class="cls-1" d="M335.5,362.37h87.17a22.5,22.5,0,0,0,0-45H335.5a22.5,22.5,0,0,0,0,45Zm0-30h87.17a7.5,7.5,0,0,1,0,15H335.5a7.5,7.5,0,0,1,0-15Z" transform="translate(0 -71.5)"/></svg>
